X: 28973
T: Napkinfish
R: reel
M: 4/4
K: Amixolydian
|a2ed cdec|A2cd ecBA|GABc d2 GA|Bcd2 GABc|
a2ed cdec|A2cd ecBA|GFGA BAGA|A4 A2:|
AB|^c2 cB A2 AB|cdcB ABcA|=c2 cB A2 AB|=cdcB ABcA|
^c2 cB A2 AB|cdcB ABcA|=cBAG =FEDC|B,2 A,4:|
FE|DFAB E^GAB|Acea fedc|dcBA ^GFED|CEA2 A,2 FE|
DFAB E^GAB|Acea fedc|dcBA E2^G2|A4 A2:|

